X:1
T:6 Lieder, Op.19
T:Liebesmacht
T:3. Liebesmacht
T:Johanna Kinkel
T:Johanna Kinkel
T:6 Lieder, Op.19 (für Alt oder Bariton) 
T:Creative Commons copyright waiver (CC0 1.0 Universal)
T:Creative Commons copyright waiver (CC0 1.0 Universal)
C:Johanna Kinkel
Z:Johanna Kinkel
Z:Creative Commons copyright waiver (CC0 1.0 Universal)
L:1/8
Q:1/4=114
M:2/4
K:C
V:1 treble nm="Singstimme\nVoice"
V:1
"^Moderato" z |: z4 | z4 | z4 | z2 z G | e B c d | c2 B B | A G A G | c2 z c | e3/2 e/ e e | %10
w: ||||1. Das|Bäch- lein magst du|däm- men wenn|ü- ber- schwillt die|Flut; ge-|biet- end magst du|
w: ||||2. Dem|fer- nen Tal ver-|traust du kein|Saa- men- stäub- chen|an; und|doch im Len- ze|
 ^d2 B B | =d3/2 B/ ^G E | B2 A A | c3/2 A/ G/^F/ G/^G/ | A2 z2 | z4 | z4 | z4 | z4 | z4 | z4 | %21
w: hem- men, ge-|bie- tend  magst du|hem- men der|Flam- men ro- * te *|Glut,|||||||
w: schaust du, und|doch im Len- ze|schaust du voll|Blu- men reich * den *|Plan,|||||||
 z4 | z4 | z4 | z4 | z4 | z4 | z4 | z4 | z4 | z4 | z4 :| z4 | z4 | z4 | z2 z |] %36
w: |||||||||||||||
w: |||||||||||||||

